X:1
T:The Peanut Vendor
T:The Peanut Vendor
T:(EL MANISERO) Preformed by Stan Kenton on Capital Records 
T:Moises Simons Arr. by Lawrence Kempton 
T:Marion Sunshine & L. Wolfe Gilbert 
C:Moises Simons Arr. by Lawrence Kempton
Z:Marion Sunshine & L. Wolfe Gilbert
%%score 1 { ( 2 4 ) | 3 }
L:1/8
Q:1/2=93
M:2/2
K:G
V:1 treble nm="Voice"
V:2 treble nm="Piano"
V:4 treble 
V:3 bass 
V:1
 z8 | z8 | z8 | z8 |: z2 G2 D2 E2 | z2 F E2 E D2 | z2 G2 D2 E2 | z2 F E2 E D2 | z2 B2 d4- | %9
 d2 F E2 E D2 | z2 B2 d4- | d2 F E2 E D2 | z2 Bc ded^c | d2 d c2 c B2 | z2 GA BcdB | d2 A c2 B G2 | %16
 z2 G2 D2 E2 | z2 F E2 E D2 | z2 G2 D2 E2 | z2 F E2 E D2 | z2 D2 E2 GA- | A A2 c2 B G2 | %22
 z2 D2 E2 GA- | A A2 c2 B d2- | d2 G2 D2 E2 | z2 F E2 E D2 | z def g2 ef- | f2 d e2 c d2 | %28
 z Bcd e2 cd- | d2 B c2 A B2 | z G2 A B2 GA- | A2 F E2 E D2- | D2 G2 D2 E2 | z2 F E2 E D2 | %34
 z2 G2 D2 E2 | z c2 d edcd- | d2 G2 D2 E2 | z c2 d efed- | d B2 c ded^c | d2 d c2 c B2 | %40
 z G2 A BcdB | d A2 c2 B G2 :| z2 B2 d4- | d F2 E2 E D2 | z2 B2 d4- | d F2 E2 E D2 | %46
!p!"^dim." z2 B2 d4- |[Q:1/2=50]"^Morendo"!pp!"^dim." d F2 E2 E D2 | z F2 E2 E D2 | %49
!ppp! z F2 E2 E D2 | G z z2 z4 |] %51
V:2
!ff! z2 Bc ded^c | d d2 c2 c B2 | z G2 A BcdB | d A2 c2 B G2 |: z2 [B,G]2 [B,D]2 [B,E]2 | %5
 z2 [CF] [CE]2 [CE] [CD]2 | z2 [B,G]2 [B,D]2 [B,E]2 | z2 [CF] [CE]2 [CE] [CD]2 | z2 B2 d4- | d8 | %10
 z2 B2 d4- | d8 | z2 Bc ded^c | [Fd]2 [Fd] [Ec]2 [Ec] [DB]2 | z2 [B,G][CA] [DB][Ec][Fd][DB] | %15
 [Fd]2 [FA] [Ec]2 [DB] [B,G]2 | z2 [B,G]2 [B,D]2 [B,E]2 | z2 [CF] [CE]2 [CE] [CD]2 | %18
 z2 [B,G]2 [B,D]2 [B,E]2 | z2 [CF] [CE]2 [CE] [CD]2 | z2 D2 E2 GA- | %21
 A [CFA]2 [CEc]2 [CEB] [B,DG]2 | z2 D2 E2 GA- | A [CFA]2 [EFc]2 [DGB] [GBd-]2 | d8- | d8 | %26
 z [GBd][GBe][GBf] [GBg]2 [Fce][Fcf]- | [Fcf]2 [Fcd] [Fce]2 [EAc] [DFd]2 | %28
 z [DGB][DAc][DBd] [GBe]2 [EGc][DFd]- | [DFd]2 [DFB] [CEc]2 [CEA] [B,DB]2 | %30
 z [B,G]2 [CA] [DB]2 GA- | [CA]2 [CF] [CE]2 [CE] [CD]2 | z2 [B,G]2 [B,D]2 [B,E]2 | %33
 z2 [CF] [CE]2 [CE] [CD]2 | z2 [B,G]2 [B,D]2 [B,E]2 | z [EFc]2 [DFd] [Fce][FBd][EAc][DBd]- | %36
 [DB]2 G2 D2 E2 | z [EGc]2 [FAd] [Gce][Acf][Gce][Fcd]- | [Fcd] [GB]2 [Ac] ded^c | %39
 [Fd]2 [Fd] [Ec]2 [Ec] [DB]2 | z [Gg]2 [Aa] [Bb][cc'][dd'][Bb] | [dd'] [Aa]2 [cc']2 [Bb] [Gg]2 :| %42
 z2 [G,B,]2 [B,D-]4 |!>(! [A,CD]8!>)! |!mf! z2 [GB]2 [Bd-]4 |!>(! [Acd]8!>)! | %46
!p!"_dim." z2 [gb]2 [bd'-]4 |!pp!"_Morendo""_dim." [ac'd']8 | [Acd]8 |!ppp! [A,CD]8 | %50
 [GBdg] z z2 z2 z2 |] %51
V:3
 z2 B,C DED^C | D D2 C2 C B,2 | z G,2 A, B,CDB, | D A,2 C2 [D,F,C] [G,B,]2 |: %4
!mf! [G,,G,]2 z4 [D,,D,]2 | A,,2 z4 [D,,D,]2 | [G,,G,]2 z4 [D,,D,]2 | A,,2 z4 [D,,D,]2 | %8
 G,,2 [D,G,B,]4 [D,,D,]2 | G,,2 [D,F,C]4 [D,,D,]2 | G,,2 [D,G,B,]4 [D,,D,]2 | %11
 G,,2 [D,F,C]4 [D,,D,]2 | G,,2 [D,G,B,]4 [G,,G,]2 | [D,A,]2 z2 [D,F,]2 [G,,G,]2 | %14
 G,,2 [D,G,B,]4 [D,,D,]2 | A,,2 z2 [D,F,]2 [G,,G,]2 | [G,,G,]2 z4 [D,,D,]2 | A,,2 z4 [D,,D,]2 | %18
 [G,,G,]2 z4 [D,,D,]2 | A,,2 z4 [D,,D,]2 | [G,,G,]2 z4 [A,,A,]2 | D,2 z4 [G,,G,]2 | %22
 [G,,G,]2 z4 [A,,A,]2 | D,2 z4 [G,,G,]2 | G,,2 [D,G,B,]4 [D,,D,]2 | G,,2 [D,F,C]4 [D,,D,]2 | %26
 G,,2 z4 [D,,D,]2 | A,,2 z4 [D,,D,]2 | [G,,G,]2 z4 [A,,A,]2 | D,2 z4 G,2 | G,,2 z4 [A,,A,]2 | %31
 D,2 z4 [D,,D,]2 |!mf! [G,,G,]2 z4 [D,,D,]2 | A,,2 z4 [D,,D,]2 | [G,,G,]2 z4 [D,,D,]2 | %35
 A,,2 z4 [D,,D,]2 | G,,2 [D,G,B,]4 [D,,D,]2 | A,,2 z4 [D,,D,]2 | [G,,G,]2 z4 [A,,A,]2 | %39
 D,2 z4 [G,,G,]2 | G,,2 [E,G,^C]2 [D,G,D]2 [=F,^G,D]2 | [E,G,C]2 z2 [D,F,C]2 [G,B,]2 :| %42
!f! G,,, z [G,,G,]2 [D,,D,]2 [E,,E,]2 | z2 [F,,F,] [E,,E,]2 [E,,E,] [D,,D,]2 | %44
!f! G,, z [G,G]2 [D,D]2 [E,E]2 | z2 [F,F] [E,E]2 [E,E] [D,D]2 |{/G,} G z g2 d2 e2 | z2 f e2 e d2 | %48
[K:bass] z2 F, E,2 E, D,2 | z2 F,, E,,2 E,, D,,2 | [G,,,G,,] z z2 z2 z2 |] %51
V:4
 x8 | x8 | x8 | x8 |: x8 | x8 | x8 | x8 | z2 G2 D2 E2 | z2 F E2 E D2 | z2 G2 D2 E2 | z2 F E2 E D2 | %12
 x2 G4 G2 | x8 | x8 | x8 | x8 | x8 | x8 | x8 | x6 [CE]2- | [CE] x7 | x6 [CE]2- | [CE] x7 | %24
 z2 G2 D2 E2 | z2 F E2 E D2 | x8 | x8 | x8 | x8 | x6 C2- | x8 | x8 | x8 | x8 | x8 | d8 | x8 | %38
 x4 B2 G2 | x8 | x8 | x8 :| x8 | x8 | x8 | x8 | x8 | x8 | x8 | x8 | x8 |] %51

